src/icons/firebase.svg

<svg viewBox="0 0 24 24" xmlns="http://www.w3.org/2000/svg">
  <path
    d="m19.389 18.237-6.742 3.74c-.462.24-.924.24-1.386 0l-6.65-3.74L16.664 6.092 16.988 6c.277 0 .434.12.461.37l1.94 11.867M9.553 6.277 5.35 13.248 7.105 2.212c.028-.25.185-.37.462-.37.185 0 .305.056.37.232l1.985 3.648-.37.554M13.71 7.44l-8.82 8.857 6.696-11.36c.092-.185.23-.268.415-.268s.305.083.37.268z"
    style="fill: #fbc02d; stroke-width: 0.9236"
  />
</svg>

<svg viewBox="0 0 24 24" xmlns="http://www.w3.org/2000/svg">
  <path
    d="M19.389 18.237L12.647 21.977C12.185 22.217 11.723 22.217 11.261 21.977L4.611 18.237L16.664 6.092L16.988 6C17.265 6 17.422 6.12 17.449 6.37L19.389 18.237ZM9.553 6.277L5.35 13.248L7.105 2.212C7.133 1.962 7.29 1.842 7.567 1.842C7.752 1.842 7.872 1.898 7.937 2.074L9.922 5.722L9.552 6.276M13.71 7.44L4.89 16.297L11.586 4.937C11.678 4.752 11.816 4.669 12.001 4.669C12.186 4.669 12.306 4.752 12.371 4.937L13.71 7.44Z"
    fill="#FBC02D"
  />
</svg>
